icons/terraform.svg

<svg width="16" height="16" viewBox="0 0 16 16" fill="none" xmlns="http://www.w3.org/2000/svg">
<path d="M6 4L10 6V10L6 8V4Z" fill="#7A6DF4"/>
<path d="M1 1.5L5 3.5V7.5L1 5.5V1.5Z" fill="#7A6DF4"/>
<path d="M6 9L10 11V15L6 13V9Z" fill="#7A6DF4"/>
<path d="M15 4L11 6V10L15 8V4Z" fill="#4F4FE8"/>
</svg>

<svg xmlns="http://www.w3.org/2000/svg" width="16" height="16" fill="none"><path fill="#7A6DF4" d="m6 4 4 2v4L6 8V4ZM1 1.5l4 2v4l-4-2v-4ZM6 9l4 2v4l-4-2V9Z"/><path fill="#4F4FE8" d="m15 4-4 2v4l4-2V4Z"/></svg>
